X: 8957
T: Curskeagh Lasses, The
R: reel
M: 4/4
K: Gmajor
|:~G3E DEGB|eage dBAF|GE~E2 DE~E2|GBAE GED2|
GBEB DEGB|eage dega|bg~g2 edBA|BGEF ~G2G2:|
|:BE~E2 DE~E2|B2ed edBA|BEEB DEGB|AcBA GED2|
BE~E2 DE~E2|Beed ~e3f|gedg edBA|1 BGEF ~G2G2:|2 BGEF GBDG||
|:~G2DG EGDg|~g2dB ABGE|GBdg egdB|AcBA GED2|~G2DG EGD2|
~G2dB deg2|1 bg~g2 edBA|BGEF ~G2G2:|2 bgeg ged2|edBA BGEF||

